!!!COM: Schubert, Franz
!!!CNT: Deutscher
!!!TXO: Deutsch
!!!OTL: "Das Fischermaedchen"
!!!OPR: Schwanengesang
!!!LYR: Heine, Heinrich
!!!ONM: No. 10
!!!ODT: 1828/
!!NB: Vocal melody only encoded.
**kern	**silbe
*clefG2	*
*k[b-e-a-d-]	*
*M6/8	*
*MM[geschwind]	*
=7	=7
4r	.
8r	.
4r	.
{8e-	{Du
=8	=8
4cc	scho2-
8cc	-nes
8cc	Fi-
8b-	|
8g	-scher-
=9	=9
4.a-	ma2d-
4e-}	-chen,}
8r	.
=10	=10
{8.c	{trei-
16c	-be
8e-	den
4a-	Kahn
8cc	an's
=11	=11
[4.ee-	Land;
4ee-]}	|}
8r	.
=13	=13
4r	.
8r	.
8r	.
{8b-	{komm
8b-	zu
=14	=14
4dd-	mir
8dd-	und
8dd-	set-
8cc	-ze
8an	dich
=15	=15
4.b-	nie-
8f}	-der,}
8r	.
{8b-	{wir
=16	=16
8cc	ko-
8b-	|
8a-	-sen
8b-	Hand
8a-	|
8g	in
=17	=17
4a-}	Hand,}
8r	.
8r	.
{8f	{komm
8f	zu
=18	=18
4dd-	mir
8dd-	und
8d--	set-
8cc	-ze
8an	dich
=19	=19
4.ff	nei-
8b-}	-der,}
8r	.
{8b-	{wir
=20	=20
8cc	ko-
8b-	|
8a-	-sen
8b-	Hand
8a-	|
8g	in
=21	=21
(4.a-	Hand,
4gg-)}	|}
{8gg-	{wir
=22	=22
8ff	ko-
8ee-	|
8dd-	-sen
8dd-M	Hand
8cc	|
8b-	in
=23	=23
4a-}	Hand.}
8r	.
4r	.
8r	.
=28	=28
4r	.
8r	.
4r	.
{8g-	{Leg'
=29	=29
4ee-	an
8ee-	mein
8ee-	Herz
8dd-	|
8b-	dein
=30	=30
4.cc-	Ko2pf-
4g-}	-chen}
{8g-	{und
=31	=31
8.e-	fu2rch-
16e-	-te
8g-	dich
4cc-	nicht
8ee-	zu
=32	=32
[4.g-	sehr;
4g-]}	|}
8r	.
=34	=34
4r	.
8r	.
4r	.
{8dd-	{ver-
=35	=35
4ff-	-traust
8ff-	du
8ff-	dich
8ee-	|
8ccn	doch
=36	=36
4.dd	sorg-
4a-}	-los}
8r	.
=37	=37
{8ee-	{ta2g-
8dd-	-lich
8cc-	dem
8dd-	wil-
8cc-	|
8b-	-den
=38	=38
4cc-}	Meer,}
8r	.
4r	.
{8a-	{ver-
=39	=39
4ff-	-traust
8ff-	du
8ff-	dich
8ee-	|
8gg-	doch
=40	=40
(4a-	sorg-
16b-	|
16cc)	|
4dd-}	-los}
8r	.
=41	=41
{8ee-	{ta2g-
8dd-	-lich
8cc-	dem
8dd-	wil-
8cc-	|
8b-	-den
=42	=42
(4.cc-	Meer,
4.gg-)}	|}
=43	=43
{8gg-	{ta2g-
8ff-	-lich
8ee-	dem
8ff-	wil-
8ee-	|
8dd-	-den
=44	=44
4cc-}	Meer.}
8r	.
4r	.
8r	.
=49	=49
4r	.
8r	.
4r	.
{8e-	{Mein
=50	=50
4cc	Herz
8cc	gleicht
8cc	ganz
8b-	|
8g	dem
=51	=51
4.a-	Mee-
4e-}	-re,}
{8e-	{hat
=52	=52
4c	Sturm
8e-	und
4a-	Ebb'
8cc	und
=53	=53
[4.ee-	Fluth,
4ee-}]	|}
8r	.
=55	=55
4r	.
8r	.
4r	.
{8b-	{und
=56	=56
4dd-	man-
8dd-	-che
8dd-	scho2-
8cc	|
8an	-ne
=57	=57
4.b-	Per-
4f}	-le}
{8b-	{in
=58	=58
8cc	sei-
8b-	|
8a-	-ner
8b-	Tie-
8a-	|
8g	-fe
=59	=59
4a-}	ruht,}
8r	.
4r	.
{8f	{und
=60	=60
4dd-	man-
8dd-	-che
8dd-	scho2-
8cc	|
8an	-ne
=61	=61
4.ff	Per-
4b-}	-le}
{8b-	{in
=62	=62
8cc	sei-
8b-	|
8a-	-ner
8b-	Tie-
8a-	|
8g	-fe
=63	=63
(4.a-	ruht,
4gg-)}	|}
{8gg-	{in
=64	=64
8ff	sei-
8ee-	|
8dd-	-ner
8dd-M	Tie-
8cc	|
8b-	-fe
=65	=65
[4.a-	ruht.
4a-]}	|}
8r	.
*-	*-
